X:1
T:Title
%%score { ( 1 3 ) | ( 2 4 ) }
L:1/8
M:3/4
K:G
V:1 treble nm="Grand Piano"
V:3 treble 
V:2 bass 
V:4 bass 
V:1
 z2 z2[Q:1/4=92] D2 | BB d2 B2 | [EA][EG] E2 G2 | D[B,G] [B,G][B,G] [DA][DB] |[M:2/4] [DFA]4 | %5
[M:1/4] D2 |[M:3/4] BB d2 B2 | [EA][EG] E2 G2 |[M:13/16] DDGB[FB]3/2[FA] |[M:2/4] G4 |[M:1/4] B2 | %11
[M:3/4] [Ec]c B2 G2 | [Ge][Ge] d3 B | cc B[DB] [EA][EGA] |[M:2/4] [DFA]4 |[M:1/4] D2 | %16
[M:3/4] BB d2 B2 | [EA][EG] E2 G2 |[M:13/16] DDGB[FB]3/2[FA] |[M:3/4] [B,G]6 |] %20
V:2
 z2 z2 D,2 | [G,D][G,D] [G,B,D]2 [G,B,D]2 | [C,C][C,C] [C,G,C]2 [C,E,C]2 | %3
 [B,,G,][G,,D,] [G,,D,][G,,D,] [D,F,]G, |[M:2/4] D,4 |[M:1/4] D,2 | %6
[M:3/4] [G,D][G,D] [G,B,D]2 [G,B,D]2 | [C,C][C,C] [C,G,C]2 [C,E,C]2 | %8
[M:13/16] [D,G,B,][D,G,B,][D,B,D][D,G,D][D,D]3/2[D,C] |[M:2/4][K:treble] [G,B,]4 |[M:1/4] G z | %11
[M:3/4][K:bass] [C,G,][E,G,E] [G,D]2 [G,B,]2 | [C,C][E,C][K:treble] [G,B,G]3 [G,D] | %13
 [F,A,D][F,A,D] [F,G,D][B,,G,] [C,G,]^C, |[M:2/4] D,4 |[M:1/4] D,2 | %16
[M:3/4] [G,D][G,D] [G,B,D]2 [G,B,D]2 | [C,C][C,C] [C,G,C]2 [C,E,C]2 | %18
[M:13/16] [D,G,B,][D,G,B,][D,B,D][D,G,D][D,D]3/2[D,C] |[M:3/4] [G,,G,]6 |] %20
V:3
 x6 | x6 | x6 | x6 |[M:2/4] x4 |[M:1/4] x2 |[M:3/4] x6 | x6 |[M:13/16] x13/2 |[M:2/4] x4 | %10
[M:1/4] z =F |[M:3/4] x6 | x6 | x6 |[M:2/4] x4 |[M:1/4] x2 |[M:3/4] x6 | x6 |[M:13/16] x13/2 | %19
[M:3/4] x6 |] %20
V:4
 x6 | x6 | x6 | x6 |[M:2/4] x4 |[M:1/4] x2 |[M:3/4] x6 | x6 |[M:13/16] x13/2 | %9
[M:2/4][K:treble] x4 |[M:1/4] G,2 |[M:3/4][K:bass] x6 | x2[K:treble] x4 | x6 |[M:2/4] x4 | %15
[M:1/4] x2 |[M:3/4] x6 | x6 |[M:13/16] x13/2 |[M:3/4] x6 |] %20

